X: 6
T: SLIDES: Cat's Rambles Set
T: Is It the Priest You Want?
C: C: Trad.; S: Bothy Band; Denis Murphy; Johnny O'Leary; Julia Clifford
C: Set Leaders: Oliushka, Anton
Z: Anton Zille ed.; The Session
N: https://thesession.org/members/26966/sets/63219
R: Slide
M: 12/8
L: 1/8
Q: 3/8=130
K: Gmaj
|:g|edB d2 B d2 B B2 g|edB d2 B c2 A A2 g|
edB d2 B BAB g3|BAB g3 B2 G G2:|
|:f|gag fgf g2 e e2 d|eaa aga b2 e e2 f|
gag fgf g2 e e2 d|BAB g3 B2 G G2:|
T: Cat's Rambles to the Child's Saucepan / Mary Willie's
K: Dmaj
A|:d2 ef2 e dcd ~B3|g2 A cBA e2 A cBA|
d2 ef2 e dcd ~B3|g2 A cBA d3 d2 A:|
|:d2 ef2 a baf a2 f|e2 A cBA efe cBA|
d2 ef2 a baf a2 f|e2 A cBA d3 d2 A:|
T: This is My Love, Do You Like Her?
K: Ador
A2A AGE c2B c2d|efe ede g3 g2e|
def g2e dBA G2A|1 Bde dBG A2B c2B:|2 Bde dBG A3 ABd||
|:eaa age dgg gfg|eaa agf g2b a2g|
eaf g2e dBA G2A|1 Bde dBG A3 ABd:|2 bde dBG A2B c2B||

